X:62
T:Diamond
R:waltz
M:3/4
L:1/8
K:Dmaj
AG|"D"F2 d3 F|"G"G3 B AG|"D"FA de fg|"D"a2 f3d|"Bm"B3 c d2|"D"A2 d2 F2|"Em"G2 E3 F|"Em"G3 E
AG|"D"F2 d3 F|"G"G3 B AG|"D"FA de fg|"D"a2 f3d|"Bm"B3 c d2|"D"A2 d2 (3EFG|"D"F2 D3 D|[1 "D"D4:|[2 D2 "D"D2||
|:FG|"D"A2 a3 a|"D"a4 ga|"Em"b2 e3 e|"A"e4 ag|"D"fg ab af|"Em"gf e3 d|"F#m"c2 A3 B|"D"A3 G|
[1 "D"FG|"D"A2 a3 a|"D"a3 b/a/ ga|"Em"b2 e3 e|"A"e4 fe|"D"d3 c A2|"G"G2 F2 G2|"D"A2 d3 d|"D"d3 G:|
[2 FG|"D"AD FA de|"D"fg ab af|"Em"bg e2 e2|"A"e4 fe|"D"d3 c A2|"G"G2 F2 G2|"D"A2 d3 d|d4|]

